icons/virus_research_alt_fill.svg

<svg width="48" height="48" viewBox="0 0 48 48" fill="none" xmlns="http://www.w3.org/2000/svg">
<path fill-rule="evenodd" clip-rule="evenodd" d="M35 8C35.5523 8 36 7.55228 36 7C36 6.44772 35.5523 6 35 6H33C32.4477 6 32 6.44772 32 7C32 7.55228 32.4477 8 33 8V9.10002C32.3616 9.2296 31.7674 9.48081 31.2426 9.8284L30.4143 9.00008C30.8048 8.60955 30.8048 7.97639 30.4143 7.58586C30.0237 7.19534 29.3906 7.19534 29 7.58586L28.3024 8.28356L28.2929 8.29289L28.2836 8.30235L27.5858 9.00008C27.1953 9.3906 27.1953 10.0238 27.5858 10.4143C27.9764 10.8048 28.6095 10.8048 29 10.4143L29.8284 11.2426C29.4808 11.7674 29.2296 12.3616 29.1 13H28C28 12.4477 27.5523 12 27 12C26.4477 12 26 12.4477 26 13V15C26 15.5523 26.4477 16 27 16C27.5523 16 28 15.5523 28 15H29.1C29.2296 15.6384 29.4808 16.2326 29.8284 16.7574L29 17.5859C28.6094 17.1953 27.9763 17.1953 27.5857 17.5859C27.1952 17.9764 27.1952 18.6096 27.5857 19.0001L29 20.4143C29.3905 20.8048 30.0236 20.8048 30.4142 20.4143C30.8047 20.0238 30.8047 19.3906 30.4142 19.0001L31.2426 18.1716C31.7674 18.5192 32.3616 18.7704 33 18.9V20C32.4477 20 32 20.4477 32 21C32 21.5523 32.4477 22 33 22H35C35.5523 22 36 21.5523 36 21C36 20.4477 35.5523 20 35 20V18.9C35.6384 18.7704 36.2326 18.5192 36.7574 18.1716L37.5858 19.0001C37.1953 19.3906 37.1953 20.0238 37.5858 20.4143C37.9764 20.8048 38.6095 20.8048 39 20.4143L40.4143 19.0001C40.8048 18.6096 40.8048 17.9764 40.4143 17.5859C40.0237 17.1953 39.3906 17.1953 39 17.5859L38.1716 16.7574C38.5192 16.2326 38.7704 15.6384 38.9 15H40C40 15.5523 40.4477 16 41 16C41.5523 16 42 15.5523 42 15V13C42 12.4477 41.5523 12 41 12C40.4477 12 40 12.4477 40 13H38.9C38.7704 12.3616 38.5192 11.7674 38.1716 11.2426L39 10.4141C39.3906 10.8047 40.0237 10.8047 40.4143 10.4141C40.8048 10.0236 40.8048 9.39045 40.4143 8.99992L39 7.58571C38.6095 7.19519 37.9764 7.19519 37.5858 7.58571C37.1953 7.97624 37.1953 8.6094 37.5858 8.99992L36.7574 9.8284C36.2326 9.48081 35.6384 9.2296 35 9.10002V8ZM14.951 11.1567L13.219 12.1567L14.3043 14.0365C13.5011 14.9757 13.3338 16.3555 13.9869 17.4867L14.2092 17.8719C11.0738 19.9245 9 23.4694 9 27.5001C9 28.7484 9.19924 29.9517 9.56814 31.0792C7.39306 32.8201 6 35.4974 6 38.5001C6 39.4708 6.14592 40.4093 6.41771 41.2938L6.63473 42.0001H23.6038C23.6191 42.0004 23.6344 42.0004 23.6497 42.0001H39C39.5523 42.0001 40 41.5523 40 41.0001C40 40.4478 39.5523 40.0001 39 40.0001H24.8821C24.9597 39.5111 25 39.01 25 38.5001C25 37.1424 24.7152 35.8512 24.202 34.683L37.8433 26.8072L36.8433 25.0752L23.2089 32.947C21.4836 30.5562 18.6735 29.0001 15.5 29.0001C14.0012 29.0001 12.5834 29.3472 11.3227 29.9654C11.1123 29.1799 11 28.3537 11 27.5001C11 24.2124 12.6699 21.3134 15.2111 19.6071L17.9869 24.415C18.8153 25.8498 20.6501 26.3415 22.0849 25.513L22.951 25.013L23.951 26.7451L25.6831 25.7451L24.6831 24.013L25.5491 23.513C26.9839 22.6846 27.4756 20.8498 26.6471 19.415L22.6471 12.4867C21.994 11.3555 20.7155 10.8106 19.5005 11.0365L18.4151 9.15667L16.6831 10.1567L15.1831 7.55859L13.451 8.55859L14.951 11.1567ZM23.2089 32.947L18.6567 35.5752L19.6567 37.3072L24.202 34.683C23.9316 34.0674 23.5978 33.486 23.2089 32.947Z" fill="black"/>
</svg>

<svg
  xmlns="http://www.w3.org/2000/svg"
  width="24"
  height="24"
  viewBox="0 0 24 24"
  fill="none"
  stroke="currentColor"
  stroke-width="2"
  stroke-linecap="round"
  stroke-linejoin="round"
>
  <path
    fill-rule="evenodd"
    d="M35 8a1 1 0 1 0 0-2h-2a1 1 0 1 0 0 2v1.1c-.638.13-1.233.38-1.757.728L30.414 9A1 1 0 0 0 29 7.586l-.698.698-.01.009-.008.01-.698.697A1 1 0 0 0 29 10.414l.828.829A5 5 0 0 0 29.1 13H28a1 1 0 1 0-2 0v2a1 1 0 1 0 2 0h1.1c.13.638.38 1.233.728 1.757l-.828.829A1 1 0 1 0 27.586 19L29 20.414A1 1 0 0 0 30.414 19l.829-.828A5 5 0 0 0 33 18.9V20a1 1 0 1 0 0 2h2a1 1 0 1 0 0-2v-1.1a5 5 0 0 0 1.757-.728l.829.828A1 1 0 0 0 39 20.414L40.414 19A1 1 0 0 0 39 17.586l-.828-.829A5 5 0 0 0 38.9 15H40a1 1 0 1 0 2 0v-2a1 1 0 1 0-2 0h-1.1a5 5 0 0 0-.728-1.757l.828-.829A1 1 0 1 0 40.414 9L39 7.586A1 1 0 1 0 37.586 9l-.829.828A5 5 0 0 0 35 9.1zm-20.049 3.157-1.732 1 1.085 1.88a3 3 0 0 0-.317 3.45l.222.385A11.49 11.49 0 0 0 9 27.5c0 1.248.2 2.452.568 3.58A9.48 9.48 0 0 0 6 38.5c0 .97.146 1.91.418 2.794l.217.706H39a1 1 0 0 0 0-2H24.882a9.57 9.57 0 0 0-.68-5.317l13.641-7.876-1-1.732-13.634 7.872A9.49 9.49 0 0 0 15.5 29a9.46 9.46 0 0 0-4.177.965A9.5 9.5 0 0 1 11 27.5a9.49 9.49 0 0 1 4.211-7.893l2.776 4.808a3 3 0 0 0 4.098 1.098l.866-.5 1 1.732 1.732-1-1-1.732.866-.5a3 3 0 0 0 1.098-4.098l-4-6.928a3 3 0 0 0-3.146-1.45l-1.086-1.88-1.732 1-1.5-2.598-1.732 1zm8.258 21.79-4.552 2.628 1 1.732 4.545-2.624a9.5 9.5 0 0 0-.993-1.736"
    clip-rule="evenodd"
  />
</svg>
